apps/64/tool.svg

<svg xmlns="http://www.w3.org/2000/svg" style="isolation:isolate" width="256" height="256"><g filter="url(#a)"><linearGradient id="b" x1=".233" y1="-.071" x2=".933" y2=".924" gradientTransform="matrix(244.648 0 0 228.338 5.676 11.947)" gradientUnits="userSpaceOnUse"><stop offset="0%" stop-color="#e8e8e8"/><stop offset="100%" stop-color="#f5f5f5"/></linearGradient><path d="M165.685 11.947c74.055 0 84.639 10.557 84.639 84.544v59.251c0 73.986-10.584 84.543-84.639 84.543h-75.37c-74.055 0-84.639-10.557-84.639-84.543V96.491c0-73.987 10.584-84.544 84.639-84.544h75.37z" fill="url(#b)"/></g><defs><filter id="a" x="-200%" y="-200%" width="400%" height="400%" filterUnits="objectBoundingBox" color-interpolation-filters="sRGB"><feGaussianBlur xmlns="http://www.w3.org/2000/svg" in="SourceGraphic" stdDeviation="4.294"/><feOffset xmlns="http://www.w3.org/2000/svg" dy="4" result="pf_100_offsetBlur"/><feFlood xmlns="http://www.w3.org/2000/svg" flood-color="#000" flood-opacity=".4"/><feComposite xmlns="http://www.w3.org/2000/svg" in2="pf_100_offsetBlur" operator="in" result="pf_100_dropShadow"/><feBlend xmlns="http://www.w3.org/2000/svg" in="SourceGraphic" in2="pf_100_dropShadow"/></filter></defs><path d="M71.392 61.731c-5.005-.063-9.462.936-12.351 4.404-2.678 3.199-3.451 7.331-3.451 12.116v24.893c0 4.785.773 8.918 3.451 12.116 2.921 3.505 7.347 4.403 12.286 4.403h113.346c4.939 0 9.37-.892 12.296-4.403 2.682-3.205 3.441-7.337 3.441-12.116V78.251c0-4.779-.758-8.911-3.441-12.116-2.926-3.512-7.357-4.404-12.296-4.404H71.392zm113.216 72.419c5.005-.064 9.462.935 12.351 4.403 2.678 3.2 3.451 7.332 3.451 12.117v24.892c0 4.786-.773 8.918-3.451 12.116-2.921 3.506-7.347 4.404-12.286 4.404H71.327c-4.939 0-9.37-.892-12.296-4.404-2.682-3.205-3.441-7.337-3.441-12.116V150.67c0-4.779.758-8.912 3.441-12.117 2.926-3.512 7.357-4.403 12.296-4.403h113.281z" fill="#FFF" opacity=".6"/><path d="M184.608 59.921c5.005-.063 9.462.935 12.351 4.403 2.678 3.199 3.451 7.332 3.451 12.117v24.892c0 4.786-.773 8.918-3.451 12.116-2.921 3.506-7.347 4.404-12.286 4.404H71.327c-4.939 0-9.37-.891-12.296-4.404-2.682-3.204-3.441-7.336-3.441-12.116V76.441c0-4.78.758-8.912 3.441-12.117 2.926-3.512 7.357-4.403 12.296-4.403h113.281z" fill="#2DAAAA"/><path d="M183.354 68.972c3.831-.048 6.402.812 7.722 2.398 1.387 1.651 2.101 4.36 2.101 8.126v22.403c0 3.765-.714 6.474-2.101 8.125-1.32 1.585-3.891 2.398-7.722 2.398h-38.291c-3.83 0-6.408-.813-7.73-2.398-1.387-1.651-2.093-4.36-2.093-8.125V79.496c0-3.766.706-6.475 2.093-8.126 1.322-1.586 3.9-2.398 7.73-2.398h38.291z" opacity=".2"/><path d="M183.354 67.162c3.831-.048 6.402.812 7.722 2.397 1.387 1.652 2.101 4.361 2.101 8.126v22.403c0 3.765-.714 6.474-2.101 8.126-1.32 1.586-3.891 2.397-7.722 2.397h-38.291c-3.83 0-6.408-.811-7.73-2.397-1.387-1.652-2.093-4.361-2.093-8.126V77.685c0-3.765.706-6.474 2.093-8.126 1.322-1.585 3.9-2.397 7.73-2.397h38.291z" fill="#FFF"/><path d="M71.392 132.34c-5.005-.063-9.462.935-12.351 4.403-2.678 3.199-3.451 7.331-3.451 12.116v24.893c0 4.785.773 8.917 3.451 12.116 2.921 3.506 7.347 4.403 12.286 4.403h113.346c4.939 0 9.37-.891 12.296-4.403 2.682-3.205 3.441-7.337 3.441-12.116v-24.893c0-4.779-.758-8.911-3.441-12.116-2.926-3.512-7.357-4.403-12.296-4.403H71.392z" fill="#B3B3B3"/><path d="M72.646 141.391c-3.831-.048-6.401.812-7.722 2.397-1.387 1.652-2.1 4.36-2.1 8.126v22.403c0 3.766.713 6.475 2.1 8.125 1.321 1.586 3.891 2.398 7.722 2.398h38.291c3.83 0 6.408-.812 7.73-2.398 1.387-1.65 2.093-4.359 2.093-8.125v-22.403c0-3.766-.706-6.474-2.093-8.126-1.322-1.585-3.9-2.397-7.73-2.397H72.646z" opacity=".2"/><path d="M72.646 139.581c-3.831-.049-6.401.811-7.722 2.397-1.387 1.651-2.101 4.36-2.101 8.125v22.404c0 3.765.714 6.474 2.101 8.126 1.321 1.585 3.891 2.396 7.722 2.396h38.291c3.83 0 6.408-.811 7.73-2.396 1.387-1.652 2.093-4.361 2.093-8.126v-22.404c0-3.765-.706-6.474-2.093-8.125-1.322-1.586-3.9-2.397-7.73-2.397H72.646z" fill="#FFF"/><path d="M71.393 59.922c-5.006-.063-9.462.934-12.351 4.402-2.678 3.199-3.451 7.331-3.451 12.117v.905c0-4.785.773-8.918 3.451-12.117 2.889-3.468 7.345-4.465 12.351-4.402h113.279c4.939 0 9.371.89 12.297 4.402 2.683 3.205 3.44 7.337 3.44 12.117v-.905c0-4.78-.757-8.912-3.44-12.117-2.926-3.512-7.358-4.402-12.297-4.402H71.393zm0 72.419c-5.006-.063-9.462.933-12.351 4.402-2.678 3.199-3.451 7.331-3.451 12.116v.905c0-4.785.773-8.917 3.451-12.117 2.889-3.467 7.345-4.465 12.351-4.401h113.279c4.939 0 9.371.89 12.297 4.401 2.683 3.206 3.44 7.338 3.44 12.117v-.905c0-4.779-.757-8.912-3.44-12.116-2.926-3.513-7.358-4.402-12.297-4.402H71.393z" opacity=".1"/><path d="M8.476 55.74C6.729 66.667 6.158 80.255 6.158 97.205v59.251c0 73.986 10.584 84.544 84.64 84.544h75.369c55.135 0 75.078-5.874 81.675-39.397L8.476 55.74z" fill="#FFF" opacity=".05"/><g opacity=".4"><linearGradient id="c" x1=".517" x2=".517" y2="1" gradientTransform="matrix(244.65 0 0 228.34 5.68 11.95)" gradientUnits="userSpaceOnUse"><stop offset="0%" stop-color="#fff"/><stop offset="12.5%" stop-opacity=".098" stop-color="#fff"/><stop offset="92.5%" stop-opacity=".098"/><stop offset="100%" stop-opacity=".498"/></linearGradient><path d="M165.068 11.951c4.328-.01 8.656.04 12.984.138 3.875.078 7.75.226 11.626.452 3.453.196 6.905.481 10.348.854 3.06.335 6.118.786 9.148 1.346a80.47 80.47 0 0 1 8.046 1.916 53.64 53.64 0 0 1 7.023 2.584 40.413 40.413 0 0 1 6.06 3.35 35.176 35.176 0 0 1 5.134 4.215 35.072 35.072 0 0 1 4.22 5.119 41.692 41.692 0 0 1 3.363 6.042 55.982 55.982 0 0 1 2.597 7.005 80.224 80.224 0 0 1 1.918 8.037 124.43 124.43 0 0 1 1.348 9.127c.374 3.439.659 6.878.856 10.326.226 3.861.373 7.732.462 11.593.088 4.323.138 8.646.128 12.96v58.21c.01 4.324-.04 8.637-.128 12.96a325.177 325.177 0 0 1-.462 11.593 200.984 200.984 0 0 1-.856 10.326 124.691 124.691 0 0 1-1.348 9.137 80.687 80.687 0 0 1-1.918 8.027 55.414 55.414 0 0 1-2.597 7.005 41.18 41.18 0 0 1-3.364 6.042 34.559 34.559 0 0 1-4.22 5.119 35.177 35.177 0 0 1-5.134 4.215 40.412 40.412 0 0 1-6.059 3.35 55.138 55.138 0 0 1-7.023 2.594 77.806 77.806 0 0 1-8.046 1.906 120 120 0 0 1-9.148 1.346c-3.443.373-6.895.658-10.348.854-3.875.226-7.75.374-11.626.462-4.328.088-8.656.138-12.984.128H90.942c-4.328.01-8.656-.04-12.984-.128a328.387 328.387 0 0 1-11.626-.462 203.003 203.003 0 0 1-10.348-.854 120 120 0 0 1-9.148-1.346 77.806 77.806 0 0 1-8.046-1.906 55.139 55.139 0 0 1-7.023-2.594 40.413 40.413 0 0 1-6.06-3.35 35.176 35.176 0 0 1-5.134-4.215 34.56 34.56 0 0 1-4.22-5.119 41.183 41.183 0 0 1-3.363-6.042 55.415 55.415 0 0 1-2.597-7.005 80.682 80.682 0 0 1-1.918-8.027 124.688 124.688 0 0 1-1.348-9.137 200.993 200.993 0 0 1-.856-10.326 325.212 325.212 0 0 1-.462-11.593 569.197 569.197 0 0 1-.128-12.96v-58.21c-.01-4.314.04-8.637.128-12.96.089-3.86.236-7.732.462-11.593.197-3.448.482-6.887.856-10.326.335-3.055.787-6.101 1.348-9.127a80.219 80.219 0 0 1 1.918-8.037 55.983 55.983 0 0 1 2.597-7.005 41.695 41.695 0 0 1 3.364-6.042 35.072 35.072 0 0 1 4.22-5.119 35.176 35.176 0 0 1 5.134-4.215 40.413 40.413 0 0 1 6.059-3.35 53.64 53.64 0 0 1 7.023-2.584 80.47 80.47 0 0 1 8.046-1.916 125.11 125.11 0 0 1 9.148-1.346c3.443-.373 6.895-.658 10.348-.854 3.875-.226 7.75-.374 11.626-.452 4.328-.098 8.656-.148 12.984-.138h74.126zm.01 4.009c4.298-.01 8.597.039 12.895.127 3.827.089 7.653.236 11.48.452 3.383.197 6.766.472 10.13.845 2.971.315 5.932.747 8.863 1.297a75.943 75.943 0 0 1 7.653 1.818 50.493 50.493 0 0 1 6.501 2.397 37.038 37.038 0 0 1 5.47 3.026 30.383 30.383 0 0 1 4.524 3.724 31.05 31.05 0 0 1 3.738 4.519 37.271 37.271 0 0 1 3.03 5.443 51.46 51.46 0 0 1 2.4 6.494 75.563 75.563 0 0 1 1.829 7.634c.54 2.928.974 5.875 1.298 8.842.374 3.36.65 6.73.846 10.11.217 3.822.374 7.634.453 11.456.088 4.293.137 8.577.137 12.87v58.212c0 4.293-.049 8.577-.137 12.87a317.503 317.503 0 0 1-.453 11.456c-.196 3.38-.472 6.75-.846 10.12a121.689 121.689 0 0 1-1.298 8.832 75.562 75.562 0 0 1-1.83 7.634 50.902 50.902 0 0 1-2.4 6.494 36.767 36.767 0 0 1-3.03 5.443 30.615 30.615 0 0 1-3.737 4.53 30.938 30.938 0 0 1-4.525 3.713 37.038 37.038 0 0 1-5.469 3.026 49.07 49.07 0 0 1-6.501 2.397 75.942 75.942 0 0 1-7.653 1.818c-2.931.55-5.892.982-8.863 1.306-3.364.364-6.747.649-10.13.836-3.827.216-7.653.373-11.48.452-4.298.098-8.597.137-12.895.137H90.932c-4.298 0-8.597-.04-12.895-.137a320.093 320.093 0 0 1-11.48-.452 193.696 193.696 0 0 1-10.13-.836 116.71 116.71 0 0 1-8.863-1.306 75.942 75.942 0 0 1-7.653-1.818 49.07 49.07 0 0 1-6.501-2.397 37.038 37.038 0 0 1-5.47-3.026 30.938 30.938 0 0 1-4.524-3.714 30.615 30.615 0 0 1-3.738-4.529 36.766 36.766 0 0 1-3.03-5.443 50.903 50.903 0 0 1-2.4-6.494 75.567 75.567 0 0 1-1.829-7.634 121.69 121.69 0 0 1-1.298-8.832c-.374-3.37-.65-6.74-.846-10.12a317.535 317.535 0 0 1-.453-11.456 623.851 623.851 0 0 1-.137-12.87V97.014c0-4.293.049-8.577.137-12.87.079-3.822.236-7.634.453-11.456.197-3.38.472-6.75.846-10.11.324-2.967.757-5.914 1.298-8.842a75.568 75.568 0 0 1 1.83-7.634 51.46 51.46 0 0 1 2.4-6.494 37.27 37.27 0 0 1 3.03-5.443 31.05 31.05 0 0 1 3.737-4.52 30.384 30.384 0 0 1 4.525-3.723 37.039 37.039 0 0 1 5.469-3.026 50.494 50.494 0 0 1 6.501-2.397 75.943 75.943 0 0 1 7.653-1.818c2.931-.55 5.892-.982 8.863-1.297 3.364-.373 6.747-.648 10.13-.845a344.71 344.71 0 0 1 11.48-.452c4.298-.088 8.597-.137 12.895-.127H165.078z" fill-rule="evenodd" fill="url(#c)"/></g></svg>

<?xml version="1.0" standalone="no"?><!-- Generator: Gravit.io --><svg xmlns="http://www.w3.org/2000/svg" xmlns:xlink="http://www.w3.org/1999/xlink" style="isolation:isolate" viewBox="0 0 256 256" width="256" height="256"><defs><filter id="l96fys1FFJZh00wRNm1zLNpQ423onfZo" x="-200%" y="-200%" width="400%" height="400%" filterUnits="objectBoundingBox" color-interpolation-filters="sRGB"><feGaussianBlur xmlns="http://www.w3.org/2000/svg" in="SourceGraphic" stdDeviation="4.293609062839028"/><feOffset xmlns="http://www.w3.org/2000/svg" dx="0" dy="4" result="pf_100_offsetBlur"/><feFlood xmlns="http://www.w3.org/2000/svg" flood-color="#000000" flood-opacity="0.4"/><feComposite xmlns="http://www.w3.org/2000/svg" in2="pf_100_offsetBlur" operator="in" result="pf_100_dropShadow"/><feBlend xmlns="http://www.w3.org/2000/svg" in="SourceGraphic" in2="pf_100_dropShadow" mode="normal"/></filter></defs><g filter="url(#l96fys1FFJZh00wRNm1zLNpQ423onfZo)"><linearGradient id="_lgradient_59" x1="0.23299999999999998" y1="-0.071" x2="0.9329999999999999" y2="0.8576661243909631" gradientTransform="matrix(244.648,0,0,228.338,5.676,11.947)" gradientUnits="userSpaceOnUse"><stop offset="0%" stop-opacity="1" style="stop-color:rgb(232,232,232)"/><stop offset="100%" stop-opacity="1" style="stop-color:rgb(245,245,245)"/></linearGradient><path d=" M 165.685 11.947 C 239.74 11.947 250.324 22.504 250.324 96.491 L 250.324 155.742 C 250.324 229.728 239.74 240.285 165.685 240.285 L 90.315 240.285 C 16.26 240.285 5.676 229.728 5.676 155.742 L 5.676 96.491 C 5.676 22.504 16.26 11.947 90.315 11.947 L 165.685 11.947 L 165.685 11.947 Z " id="Path" fill="url(#_lgradient_59)"/></g><g opacity="0.6"><path d=" M 71.392 61.731 C 66.387 61.668 61.93 62.667 59.041 66.135 C 56.363 69.334 55.59 73.466 55.59 78.251 L 55.59 103.144 C 55.59 107.929 56.363 112.062 59.041 115.26 C 61.962 118.765 66.388 119.663 71.327 119.663 L 184.673 119.663 C 189.612 119.663 194.043 118.771 196.969 115.26 C 199.651 112.055 200.41 107.923 200.41 103.144 L 200.41 78.251 C 200.41 73.472 199.652 69.34 196.969 66.135 C 194.043 62.623 189.612 61.731 184.673 61.731 L 71.392 61.731 L 71.392 61.731 Z  M 184.608 134.15 C 189.613 134.086 194.07 135.085 196.959 138.553 C 199.637 141.753 200.41 145.885 200.41 150.67 L 200.41 175.562 C 200.41 180.348 199.637 184.48 196.959 187.678 C 194.038 191.184 189.612 192.082 184.673 192.082 L 71.327 192.082 C 66.388 192.082 61.957 191.19 59.031 187.678 C 56.349 184.473 55.59 180.341 55.59 175.562 L 55.59 150.67 C 55.59 145.891 56.348 141.758 59.031 138.553 C 61.957 135.041 66.388 134.15 71.327 134.15 L 184.608 134.15 L 184.608 134.15 Z " id="Compound Path" fill="rgb(255,255,255)"/></g><path d=" M 184.608 59.921 C 189.613 59.858 194.07 60.856 196.959 64.324 C 199.637 67.523 200.41 71.656 200.41 76.441 L 200.41 101.333 C 200.41 106.119 199.637 110.251 196.959 113.449 C 194.038 116.955 189.612 117.853 184.673 117.853 L 71.327 117.853 C 66.388 117.853 61.957 116.962 59.031 113.449 C 56.349 110.245 55.59 106.113 55.59 101.333 L 55.59 76.441 C 55.59 71.661 56.348 67.529 59.031 64.324 C 61.957 60.812 66.388 59.921 71.327 59.921 L 184.608 59.921 L 184.608 59.921 Z " id="Path" fill="rgb(50,95,120)"/><g opacity="0.2"><path d=" M 183.354 68.972 C 187.185 68.924 189.756 69.784 191.076 71.37 C 192.463 73.021 193.177 75.73 193.177 79.496 L 193.177 101.899 C 193.177 105.664 192.463 108.373 191.076 110.024 C 189.756 111.609 187.185 112.422 183.354 112.422 L 145.063 112.422 C 141.233 112.422 138.655 111.609 137.333 110.024 C 135.946 108.373 135.24 105.664 135.24 101.899 L 135.24 79.496 C 135.24 75.73 135.946 73.021 137.333 71.37 C 138.655 69.784 141.233 68.972 145.063 68.972 L 183.354 68.972 L 183.354 68.972 Z " id="Path" fill="rgb(0,0,0)"/></g><path d=" M 183.354 67.162 C 187.185 67.114 189.756 67.974 191.076 69.559 C 192.463 71.211 193.177 73.92 193.177 77.685 L 193.177 100.088 C 193.177 103.853 192.463 106.562 191.076 108.214 C 189.756 109.8 187.185 110.611 183.354 110.611 L 145.063 110.611 C 141.233 110.611 138.655 109.8 137.333 108.214 C 135.946 106.562 135.24 103.853 135.24 100.088 L 135.24 77.685 C 135.24 73.92 135.946 71.211 137.333 69.559 C 138.655 67.974 141.233 67.162 145.063 67.162 L 183.354 67.162 L 183.354 67.162 Z " id="Path" fill="rgb(255,255,255)"/><path d=" M 71.392 132.34 C 66.387 132.277 61.93 133.275 59.041 136.743 C 56.363 139.942 55.59 144.074 55.59 148.859 L 55.59 173.752 C 55.59 178.537 56.363 182.669 59.041 185.868 C 61.962 189.374 66.388 190.271 71.327 190.271 L 184.673 190.271 C 189.612 190.271 194.043 189.38 196.969 185.868 C 199.651 182.663 200.41 178.531 200.41 173.752 L 200.41 148.859 C 200.41 144.08 199.652 139.948 196.969 136.743 C 194.043 133.231 189.612 132.34 184.673 132.34 L 71.392 132.34 L 71.392 132.34 Z " id="Path" fill="rgb(179,179,179)"/><g opacity="0.2"><path d=" M 72.646 141.391 C 68.815 141.343 66.245 142.203 64.924 143.788 C 63.537 145.44 62.824 148.148 62.824 151.914 L 62.824 174.317 C 62.824 178.083 63.537 180.792 64.924 182.442 C 66.245 184.028 68.815 184.84 72.646 184.84 L 110.937 184.84 C 114.767 184.84 117.345 184.028 118.667 182.442 C 120.054 180.792 120.76 178.083 120.76 174.317 L 120.76 151.914 C 120.76 148.148 120.054 145.44 118.667 143.788 C 117.345 142.203 114.767 141.391 110.937 141.391 L 72.646 141.391 L 72.646 141.391 Z " id="Path" fill="rgb(0,0,0)"/></g><path d=" M 72.646 139.581 C 68.815 139.532 66.245 140.392 64.924 141.978 C 63.537 143.629 62.823 146.338 62.823 150.103 L 62.823 172.507 C 62.823 176.272 63.537 178.981 64.924 180.633 C 66.245 182.218 68.815 183.029 72.646 183.029 L 110.937 183.029 C 114.767 183.029 117.345 182.218 118.667 180.633 C 120.054 178.981 120.76 176.272 120.76 172.507 L 120.76 150.103 C 120.76 146.338 120.054 143.629 118.667 141.978 C 117.345 140.392 114.767 139.581 110.937 139.581 L 72.646 139.581 L 72.646 139.581 Z " id="Path" fill="rgb(255,255,255)"/><g opacity="0.1"><path d=" M 71.393 59.922 C 66.387 59.859 61.931 60.856 59.042 64.324 C 56.364 67.523 55.591 71.655 55.591 76.441 L 55.591 77.346 C 55.591 72.561 56.364 68.428 59.042 65.229 C 61.931 61.761 66.387 60.764 71.393 60.827 L 184.672 60.827 C 189.611 60.827 194.043 61.717 196.969 65.229 C 199.652 68.434 200.409 72.566 200.409 77.346 L 200.409 76.441 C 200.409 71.661 199.652 67.529 196.969 64.324 C 194.043 60.812 189.611 59.922 184.672 59.922 L 71.393 59.922 L 71.393 59.922 Z  M 71.393 132.341 C 66.387 132.278 61.931 133.274 59.042 136.743 C 56.364 139.942 55.591 144.074 55.591 148.859 L 55.591 149.764 C 55.591 144.979 56.364 140.847 59.042 137.647 C 61.931 134.18 66.387 133.182 71.393 133.246 L 184.672 133.246 C 189.611 133.246 194.043 134.136 196.969 137.647 C 199.652 140.853 200.409 144.985 200.409 149.764 L 200.409 148.859 C 200.409 144.08 199.652 139.947 196.969 136.743 C 194.043 133.23 189.611 132.341 184.672 132.341 L 71.393 132.341 L 71.393 132.341 Z " id="Compound Path" fill="rgb(0,0,0)"/></g><g opacity="0.05"><path d=" M 8.476 55.74 C 6.729 66.667 6.158 80.255 6.158 97.205 L 6.158 156.456 C 6.158 230.442 16.742 241 90.798 241 L 166.167 241 C 221.302 241 241.245 235.126 247.842 201.603 L 8.476 55.74 L 8.476 55.74 Z " id="Path" fill="rgb(255,255,255)"/></g><g opacity="0.4"><linearGradient id="_lgradient_60" x1="0.5166666666666668" y1="0" x2="0.5166666666666666" y2="1.0000000000000002" gradientTransform="matrix(244.65,0,0,228.34,5.68,11.95)" gradientUnits="userSpaceOnUse"><stop offset="0%" stop-opacity="1" style="stop-color:rgb(255,255,255)"/><stop offset="12.5%" stop-opacity="0.09803922" style="stop-color:rgb(255,255,255)"/><stop offset="92.500001%" stop-opacity="0.09803922" style="stop-color:rgb(0,0,0)"/><stop offset="100%" stop-opacity="0.49803922" style="stop-color:rgb(0,0,0)"/></linearGradient><path d=" M 165.068 11.951 C 169.396 11.941 173.724 11.991 178.052 12.089 C 181.927 12.167 185.803 12.315 189.678 12.541 C 193.131 12.737 196.583 13.022 200.026 13.395 C 203.085 13.73 206.144 14.181 209.174 14.741 C 211.889 15.243 214.574 15.881 217.22 16.657 C 219.62 17.355 221.971 18.219 224.243 19.241 C 226.358 20.184 228.384 21.304 230.302 22.591 C 232.142 23.829 233.863 25.244 235.437 26.806 C 237.001 28.378 238.417 30.088 239.656 31.925 C 240.945 33.841 242.066 35.865 243.02 37.967 C 244.043 40.247 244.909 42.585 245.617 44.972 C 246.394 47.615 247.034 50.297 247.535 53.009 C 248.096 56.035 248.548 59.081 248.883 62.136 C 249.257 65.575 249.542 69.014 249.739 72.462 C 249.965 76.323 250.112 80.194 250.201 84.055 C 250.289 88.378 250.339 92.701 250.329 97.014 L 250.329 155.226 C 250.339 159.549 250.289 163.862 250.201 168.185 C 250.112 172.056 249.965 175.917 249.739 179.778 C 249.542 183.226 249.257 186.675 248.883 190.104 C 248.548 193.159 248.096 196.215 247.535 199.241 C 247.034 201.943 246.394 204.625 245.617 207.268 C 244.909 209.655 244.043 212.003 243.02 214.273 C 242.066 216.385 240.945 218.399 239.656 220.315 C 238.417 222.152 237.001 223.872 235.437 225.434 C 233.863 226.996 232.142 228.411 230.302 229.649 C 228.384 230.936 226.358 232.056 224.243 232.999 C 221.971 234.021 219.62 234.885 217.22 235.593 C 214.574 236.369 211.889 237.007 209.174 237.499 C 206.144 238.068 203.085 238.51 200.026 238.845 C 196.583 239.218 193.131 239.503 189.678 239.699 C 185.803 239.925 181.927 240.073 178.052 240.161 C 173.724 240.249 169.396 240.299 165.068 240.289 L 90.942 240.289 C 86.614 240.299 82.286 240.249 77.958 240.161 C 74.083 240.073 70.207 239.925 66.332 239.699 C 62.879 239.503 59.427 239.218 55.984 238.845 C 52.925 238.51 49.866 238.068 46.836 237.499 C 44.121 237.007 41.436 236.369 38.79 235.593 C 36.39 234.885 34.039 234.021 31.767 232.999 C 29.652 232.056 27.626 230.936 25.708 229.649 C 23.868 228.411 22.147 226.996 20.573 225.434 C 19.009 223.872 17.593 222.152 16.354 220.315 C 15.065 218.399 13.944 216.385 12.99 214.273 C 11.967 212.003 11.101 209.655 10.393 207.268 C 9.616 204.625 8.976 201.943 8.475 199.241 C 7.914 196.215 7.462 193.159 7.127 190.104 C 6.753 186.675 6.468 183.226 6.271 179.778 C 6.045 175.917 5.898 172.056 5.809 168.185 C 5.721 163.862 5.671 159.549 5.681 155.226 L 5.681 97.014 C 5.671 92.701 5.721 88.378 5.809 84.055 C 5.898 80.194 6.045 76.323 6.271 72.462 C 6.468 69.014 6.753 65.575 7.127 62.136 C 7.462 59.081 7.914 56.035 8.475 53.009 C 8.976 50.297 9.616 47.615 10.393 44.972 C 11.101 42.585 11.967 40.247 12.99 37.967 C 13.944 35.865 15.065 33.841 16.354 31.925 C 17.593 30.088 19.009 28.378 20.573 26.806 C 22.147 25.244 23.868 23.829 25.708 22.591 C 27.626 21.304 29.652 20.184 31.767 19.241 C 34.039 18.219 36.39 17.355 38.79 16.657 C 41.436 15.881 44.121 15.243 46.836 14.741 C 49.866 14.181 52.925 13.73 55.984 13.395 C 59.427 13.022 62.879 12.737 66.332 12.541 C 70.207 12.315 74.083 12.167 77.958 12.089 C 82.286 11.991 86.614 11.941 90.942 11.951 L 165.068 11.951 Z  M 165.078 15.96 C 169.376 15.95 173.675 15.999 177.973 16.087 C 181.8 16.176 185.626 16.323 189.452 16.539 C 192.836 16.736 196.219 17.011 199.583 17.384 C 202.554 17.699 205.515 18.131 208.446 18.681 C 211.023 19.153 213.58 19.762 216.099 20.499 C 218.322 21.147 220.495 21.953 222.6 22.896 C 224.509 23.751 226.338 24.763 228.069 25.922 C 229.692 27.013 231.207 28.26 232.594 29.646 C 233.981 31.031 235.23 32.544 236.332 34.165 C 237.492 35.894 238.506 37.712 239.361 39.608 C 240.306 41.72 241.112 43.892 241.761 46.102 C 242.509 48.617 243.109 51.162 243.591 53.736 C 244.132 56.664 244.565 59.611 244.889 62.578 C 245.263 65.938 245.539 69.308 245.735 72.688 C 245.952 76.51 246.109 80.322 246.188 84.144 C 246.276 88.437 246.325 92.721 246.325 97.014 C 246.325 97.014 246.325 97.014 246.325 97.014 L 246.325 155.226 C 246.325 155.226 246.325 155.226 246.325 155.226 C 246.325 159.519 246.276 163.803 246.188 168.096 C 246.109 171.918 245.952 175.74 245.735 179.552 C 245.539 182.932 245.263 186.302 244.889 189.672 C 244.565 192.629 244.132 195.576 243.591 198.504 C 243.109 201.078 242.509 203.623 241.761 206.138 C 241.112 208.358 240.306 210.52 239.361 212.632 C 238.506 214.528 237.492 216.356 236.332 218.075 C 235.23 219.706 233.981 221.219 232.594 222.604 C 231.207 223.98 229.692 225.227 228.069 226.318 C 226.338 227.477 224.509 228.489 222.6 229.344 C 220.495 230.297 218.322 231.093 216.099 231.741 C 213.58 232.478 211.023 233.087 208.446 233.559 C 205.515 234.109 202.554 234.541 199.583 234.865 C 196.219 235.229 192.836 235.514 189.452 235.701 C 185.626 235.917 181.8 236.074 177.973 236.153 C 173.675 236.251 169.376 236.29 165.078 236.29 C 165.078 236.29 165.078 236.29 165.068 236.29 L 90.942 236.29 C 90.932 236.29 90.932 236.29 90.932 236.29 C 86.634 236.29 82.335 236.251 78.037 236.153 C 74.21 236.074 70.384 235.917 66.558 235.701 C 63.174 235.514 59.791 235.229 56.427 234.865 C 53.456 234.541 50.495 234.109 47.564 233.559 C 44.987 233.087 42.43 232.478 39.911 231.741 C 37.688 231.093 35.515 230.297 33.41 229.344 C 31.501 228.489 29.672 227.477 27.941 226.318 C 26.318 225.227 24.803 223.98 23.416 222.604 C 22.029 221.219 20.78 219.706 19.678 218.075 C 18.518 216.356 17.504 214.528 16.649 212.632 C 15.704 210.52 14.898 208.358 14.249 206.138 C 13.501 203.623 12.901 201.078 12.419 198.504 C 11.878 195.576 11.445 192.629 11.121 189.672 C 10.747 186.302 10.472 182.932 10.275 179.552 C 10.058 175.74 9.901 171.918 9.822 168.096 C 9.734 163.803 9.685 159.519 9.685 155.226 C 9.685 155.226 9.685 155.226 9.685 155.226 L 9.685 97.014 C 9.685 97.014 9.685 97.014 9.685 97.014 C 9.685 92.721 9.734 88.437 9.822 84.144 C 9.901 80.322 10.058 76.51 10.275 72.688 C 10.472 69.308 10.747 65.938 11.121 62.578 C 11.445 59.611 11.878 56.664 12.419 53.736 C 12.901 51.162 13.501 48.617 14.249 46.102 C 14.898 43.892 15.704 41.72 16.649 39.608 C 17.504 37.712 18.518 35.894 19.678 34.165 C 20.78 32.544 22.029 31.031 23.416 29.646 C 24.803 28.26 26.318 27.013 27.941 25.922 C 29.672 24.763 31.501 23.751 33.41 22.896 C 35.515 21.953 37.688 21.147 39.911 20.499 C 42.43 19.762 44.987 19.153 47.564 18.681 C 50.495 18.131 53.456 17.699 56.427 17.384 C 59.791 17.011 63.174 16.736 66.558 16.539 C 70.384 16.323 74.21 16.176 78.037 16.087 C 82.335 15.999 86.634 15.95 90.932 15.96 C 90.932 15.96 90.932 15.96 90.942 15.96 L 165.068 15.96 C 165.078 15.96 165.078 15.96 165.078 15.96 Z " fill-rule="evenodd" id="highlight" fill="url(#_lgradient_60)"/></g></svg>
